assets/images/payment-methods/cc.svg

<svg width="65" height="40" viewBox="0 0 65 40" fill="none" xmlns="http://www.w3.org/2000/svg">
<g id="Type=Logo, Name=All cards, Size=40 px">
<g id="Asset_Logo_Payment method">
<rect x="34.5" y="0.5" width="29.256" height="17.91" rx="1.5" fill="white"/>
<g id="Group 49">
<path id="Vector" fill-rule="evenodd" clip-rule="evenodd" d="M58.4259 12.5443V12.3437H58.3739L58.3136 12.4818L58.2532 12.3437H58.2009V12.5443H58.238V12.3931L58.2943 12.5236H58.3328L58.3892 12.3927V12.5443H58.4262H58.4259ZM58.0944 12.5443V12.3778H58.1616V12.344H57.9908V12.3778H58.0581V12.5443H58.0944ZM58.4368 9.56148C58.4368 12.6664 55.9261 15.1833 52.8288 15.1833C49.7322 15.1833 47.2216 12.6664 47.2216 9.56148C47.2216 6.45693 49.7322 3.9397 52.8292 3.9397C55.9261 3.9397 58.4368 6.45693 58.4368 9.56148Z" fill="#F79F1A"/>
<path id="Vector_2" fill-rule="evenodd" clip-rule="evenodd" d="M51.5186 9.56148C51.5186 12.6664 49.0079 15.1833 45.911 15.1833C42.8144 15.1833 40.3033 12.6664 40.3033 9.56148C40.3033 6.45693 42.814 3.9397 45.9113 3.9397C49.0079 3.9397 51.5186 6.45693 51.5186 9.56148Z" fill="#EA001B"/>
<path id="Vector_3" fill-rule="evenodd" clip-rule="evenodd" d="M49.3699 5.13574C48.6996 5.66196 48.1578 6.33386 47.7856 7.10052C47.4135 7.86718 47.2207 8.70849 47.2219 9.5607C47.2219 11.3572 48.0615 12.9575 49.3699 13.9868C50.6783 12.9575 51.5179 11.3572 51.5179 9.5607C51.5191 8.70849 51.3263 7.86718 50.9542 7.10052C50.582 6.33386 50.0402 5.66196 49.3699 5.13574Z" fill="#FF5F01"/>
</g>
<rect x="34.5" y="0.5" width="29.256" height="17.91" rx="1.5" stroke="#DDDDDD"/>
</g>
<g id="Asset_Logo_Payment method_2">
<rect x="34.5" y="21.5" width="29.256" height="17.91" rx="1.5" fill="url(#paint0_linear_1_9374)"/>
<path id="Combined Shape" fill-rule="evenodd" clip-rule="evenodd" d="M44.0122 30.0549H49.3159C49.2686 28.9085 49.0015 27.7265 48.1914 26.9673C47.2263 26.063 45.536 25.7275 44.0257 25.7275C42.4536 25.7275 40.7151 26.0955 39.745 27.0658C38.9084 27.9016 38.7275 29.2465 38.7275 30.4548C38.7275 31.7205 39.0814 33.1927 39.9889 34.0407C40.9539 34.943 42.5176 35.1825 44.0257 35.1825C45.4906 35.1825 47.0775 34.912 48.037 34.0554C48.9936 33.1998 49.3243 31.7585 49.3243 30.4548V30.4487H44.0122V30.0549ZM49.6716 30.4489V34.9711H57.0496V34.965C58.1291 34.9062 58.988 33.9328 58.988 32.7377C58.988 31.542 58.1291 30.5062 57.0496 30.4469V30.4489H49.6716ZM56.9656 25.9168C58.0178 25.9168 58.853 26.8298 58.853 27.9818C58.853 29.0724 58.086 29.963 57.1103 30.0549H49.6716V25.9102H56.7328C56.7763 25.9049 56.8269 25.9087 56.8764 25.9123C56.9073 25.9146 56.9377 25.9168 56.9656 25.9168Z" fill="#FEFEFE"/>
<rect x="34.5" y="21.5" width="29.256" height="17.91" rx="1.5" stroke="#DDDDDD"/>
</g>
<g id="Asset_Logo_Payment method_3">
<rect x="0.5" y="0.5" width="29.256" height="17.91" rx="1.5" fill="white"/>
<g id="Group 48">
<path id="polygon9" d="M13.7299 12.5156H12.047L13.0996 6.41382H14.7824L13.7299 12.5156Z" fill="#1A1F71"/>
<path id="path11" d="M19.8303 6.563C19.4983 6.43954 18.9718 6.30322 18.3208 6.30322C16.6589 6.30322 15.4886 7.13406 15.4814 8.32191C15.4676 9.1983 16.3193 9.68507 16.9563 9.97729C17.6074 10.2759 17.8287 10.4708 17.8287 10.737C17.8221 11.1457 17.3026 11.3342 16.8181 11.3342C16.1462 11.3342 15.7862 11.237 15.2391 11.0096L15.0175 10.9121L14.782 12.2818C15.1767 12.4504 15.9039 12.6 16.6589 12.6066C18.4247 12.6066 19.5743 11.7886 19.588 10.5227C19.5947 9.82812 19.1449 9.29588 18.1753 8.86096C17.5867 8.58177 17.2262 8.39352 17.2262 8.10786C17.2331 7.84817 17.5311 7.58218 18.1956 7.58218C18.7427 7.56915 19.1447 7.69244 19.4492 7.81582L19.6014 7.88061L19.8303 6.563Z" fill="#1A1F71"/>
<path id="path13" fill-rule="evenodd" clip-rule="evenodd" d="M22.843 6.41382H24.1447L25.5024 12.5155H23.9442C23.9442 12.5155 23.7917 11.8144 23.7434 11.6002H21.5827L21.2295 12.5155H19.4636L21.9634 6.92009C22.1366 6.52408 22.4416 6.41382 22.843 6.41382ZM22.7391 8.64705C22.7391 8.64705 22.2058 10.0037 22.0672 10.3543H23.466C23.3968 10.0492 23.0781 8.58864 23.0781 8.58864L22.9605 8.06288C22.911 8.19827 22.8394 8.3844 22.791 8.50995C22.7583 8.59505 22.7363 8.65232 22.7391 8.64705Z" fill="#1A1F71"/>
<path id="Combined Shape_2" fill-rule="evenodd" clip-rule="evenodd" d="M4.75524 6.41382H7.46288C7.82989 6.42667 8.12769 6.53702 8.2246 6.92673L8.81318 9.73095L8.81321 9.73105L8.99328 10.5748L10.6414 6.41397H12.421L9.7757 12.5093H7.99607L6.49603 7.20718C5.97852 6.92354 5.38789 6.69542 4.72754 6.53711L4.75524 6.41382Z" fill="#1A1F71"/>
</g>
<rect x="0.5" y="0.5" width="29.256" height="17.91" rx="1.5" stroke="#DDDDDD"/>
</g>
<g id="Asset_Logo_Payment method_4">
<rect x="0.5" y="21.5" width="29.256" height="17.91" rx="1.5" fill="#2557D6"/>
<path id="Vector_4" fill-rule="evenodd" clip-rule="evenodd" d="M0.787964 29.6245H2.16576L2.47627 28.8784H3.17148L3.48122 29.6241H6.19207V29.054L6.43375 29.6268H7.84099L8.08305 29.0456V29.6245H14.8191L14.8156 28.3997H14.946C15.0374 28.4027 15.0642 28.4111 15.0642 28.5614V29.6245H18.5479V29.3392C18.8289 29.4891 19.266 29.6245 19.8412 29.6245H21.3069L21.6205 28.8784H22.3161L22.6227 29.6241H25.4472V28.9155L25.8747 29.6245H28.1385V24.9397H25.8984V25.493L25.5848 24.9397H23.2862V25.493L22.9983 24.9397H19.8932C19.3739 24.9397 18.9169 25.012 18.5479 25.2131V24.9397H16.4057V25.2131C16.1709 25.0059 15.8508 24.9397 15.4948 24.9397H7.66776L7.14234 26.1496L6.60316 24.9397H4.13781V25.493L3.86707 24.9397H1.76424L0.787964 27.1668V29.6245ZM9.48379 28.9484H8.65704L8.65398 26.3179L7.48497 28.9488H6.77715L5.60508 26.3156V28.9484H3.96496L3.65522 28.1993H1.97647L1.66366 28.9488H0.787964L2.23191 25.5898H3.4296L4.80089 28.7698V25.5898H6.11674L7.17217 27.8681L8.14118 25.5898H9.48341V28.9484H9.48379ZM3.37989 27.5026L2.82808 26.1638L2.27933 27.5022H3.37989V27.5026ZM12.7732 28.9488H10.08V25.5902H12.7732V26.2896H10.8861V26.8949H12.7281V27.5832H10.8861V28.2544H12.7732V28.9488ZM16.5689 26.4945C16.5689 27.0299 16.2095 27.3068 16.0007 27.3901C16.177 27.4567 16.3276 27.5748 16.3995 27.6731C16.5135 27.8398 16.533 27.989 16.533 28.2888V28.9488H15.7196L15.7166 28.5255C15.7166 28.3232 15.7361 28.0326 15.5892 27.8708C15.4714 27.753 15.2921 27.7274 15.0019 27.7274H14.1361V28.9488H13.33V25.5902H15.1846C15.5965 25.5902 15.9001 25.6009 16.1609 25.7508C16.416 25.9011 16.5689 26.1202 16.5689 26.4945ZM15.5495 26.9936C15.4386 27.0605 15.3078 27.0624 15.1506 27.0624H14.1713V26.3167H15.164C15.3047 26.3167 15.4512 26.3228 15.5464 26.3771C15.6512 26.4261 15.7158 26.5301 15.7158 26.6743C15.7158 26.8207 15.6542 26.9389 15.5495 26.9936ZM17.8618 28.9488H17.0393V25.5902H17.8615V28.9488H17.8618ZM27.412 28.9488H26.2693L24.7413 26.428V28.9488H23.0992L22.7857 28.1997H21.1107L20.806 28.9492H19.8626C19.4706 28.9492 18.9746 28.8628 18.6936 28.5775C18.4102 28.2922 18.2626 27.906 18.2626 27.2953C18.2626 26.797 18.3506 26.3416 18.6974 25.9817C18.9582 25.7137 19.3662 25.5902 19.9218 25.5902H20.7023V26.3098H19.9387C19.6442 26.3098 19.4783 26.3534 19.318 26.5087C19.1807 26.6502 19.0863 26.9179 19.0863 27.2697C19.0863 27.6291 19.1582 27.8892 19.3081 28.0586C19.4324 28.1913 19.6576 28.2318 19.8702 28.2318H20.232L21.3685 25.5902H22.5769L23.9417 28.7672V25.5902H25.1692L26.5863 27.9293V25.5902H27.4123V28.9488H27.412ZM22.5111 27.5026L21.9532 26.1638L21.3983 27.5026H22.5111ZM29.4666 34.312C29.2704 34.5973 28.8892 34.7418 28.3722 34.7418H26.8154V34.0214H28.366C28.5198 34.0214 28.6276 34.0011 28.6922 33.938C28.7226 33.9102 28.7468 33.8763 28.7632 33.8386C28.7797 33.8008 28.7881 33.7601 28.7878 33.7189C28.7895 33.6768 28.7815 33.6348 28.7644 33.5963C28.7473 33.5578 28.7215 33.5237 28.6892 33.4967C28.6307 33.4455 28.5454 33.4221 28.4051 33.4221C27.6479 33.3965 26.7034 33.4455 26.7034 32.382C26.7034 31.8948 27.0143 31.382 27.8605 31.382H29.4666V30.7136H27.9741C27.524 30.7136 27.1967 30.8207 26.9653 30.9878V30.7136H24.7581C24.4051 30.7136 23.991 30.8008 23.7948 30.9878V30.7136H19.8538V30.9878C19.5402 30.7625 19.0106 30.7136 18.7666 30.7136H16.1667V30.9878C15.9185 30.7488 15.3667 30.7136 15.0305 30.7136H12.1208L11.4555 31.431L10.8318 30.7136H6.48537V35.4018H10.7499L11.436 34.6726L12.0822 35.4015L14.7108 35.4038V34.3009H14.969C15.3177 34.3063 15.7292 34.2925 16.0921 34.1365V35.4015H18.2603V34.1793H18.3647C18.4985 34.1793 18.5115 34.1847 18.5115 34.3173V35.4011H25.0973C25.5156 35.4011 25.9527 35.294 26.1948 35.1009V35.4011H28.2838C28.7186 35.4011 29.1431 35.3399 29.4662 35.1846V34.3116L29.4666 34.312ZM16.4076 32.5086C16.4076 33.4416 15.7078 33.6348 15.0034 33.6348H13.9973V34.7617H12.4302L11.4375 33.6493L10.4058 34.7617H7.21194V31.4019H10.4547L11.4467 32.5032L12.4723 31.4019H15.0485C15.6883 31.4019 16.4072 31.5782 16.4072 32.5086H16.4076ZM9.99736 34.055H8.01498V33.3866H9.78512V32.7009H8.0146V32.0902H10.0364L10.9182 33.0692L9.99736 34.055ZM13.1912 34.4397L11.9533 33.0707L13.1912 31.7461V34.4397ZM15.0221 32.9457H13.9801V32.0902H15.0317C15.3223 32.0902 15.5246 32.2084 15.5246 32.5021C15.5246 32.7927 15.3319 32.9457 15.0221 32.9457ZM20.4805 31.4019H23.1715V32.0967H21.2836V32.7074H23.1252V33.3931H21.2836V34.0615L23.1715 34.0646V34.7617H20.4805V31.4019ZM19.4461 33.2004C19.6255 33.2661 19.7723 33.3843 19.8412 33.4822C19.9547 33.6466 19.9712 33.7996 19.9746 34.0956V34.7617H19.1651V34.3411C19.1651 34.1391 19.1846 33.8401 19.0351 33.6833C18.9169 33.5633 18.7375 33.5342 18.4431 33.5342H17.5815V34.7617H16.7716V31.4019H18.6328C19.0412 31.4019 19.3383 31.4199 19.6029 31.5602C19.8576 31.7132 20.0174 31.9235 20.0174 32.3063C20.0174 32.8428 19.658 33.1162 19.4461 33.2004ZM18.9903 32.7755C18.8825 32.8394 18.7494 32.8447 18.5922 32.8447H17.6125V32.0902H18.6056C18.749 32.0902 18.8924 32.0933 18.9903 32.1507C19.0947 32.2053 19.157 32.3094 19.157 32.4528C19.157 32.5969 19.0947 32.7128 18.9903 32.7755ZM26.269 32.9896C26.4257 33.1514 26.5099 33.3556 26.5099 33.7013C26.5099 34.424 26.0563 34.7613 25.2434 34.7613H23.6728V34.0409H25.2369C25.3898 34.0409 25.4984 34.021 25.5665 33.9579C25.5966 33.9299 25.6207 33.896 25.6371 33.8583C25.6534 33.8206 25.6618 33.7799 25.6617 33.7388C25.6625 33.6968 25.6541 33.6551 25.6371 33.6167C25.62 33.5783 25.5948 33.5441 25.563 33.5166C25.5019 33.4654 25.4166 33.442 25.2762 33.442C24.5221 33.4164 23.578 33.465 23.578 32.4019C23.578 31.9147 23.8854 31.4019 24.7306 31.4019H26.347V32.117H24.8678C24.7214 32.117 24.6262 32.1224 24.5447 32.1774C24.4568 32.2321 24.4239 32.3128 24.4239 32.4195C24.4226 32.4745 24.4391 32.5286 24.4708 32.5736C24.5025 32.6186 24.5479 32.6522 24.6002 32.6696C24.6854 32.699 24.7768 32.7078 24.9137 32.7078L25.3481 32.7193C25.7856 32.73 26.0862 32.8053 26.269 32.9896ZM29.4681 32.0902H27.9986C27.8521 32.0902 27.7546 32.0956 27.6724 32.1507C27.5875 32.2053 27.5546 32.286 27.5546 32.3927C27.5527 32.4479 27.5689 32.5022 27.6008 32.5474C27.6326 32.5925 27.6783 32.626 27.7309 32.6428C27.8158 32.6723 27.9072 32.681 28.0418 32.681L28.4785 32.6925C28.9194 32.7032 29.2138 32.7789 29.3932 32.9629C29.4261 32.9885 29.4456 33.0172 29.4681 33.0462V32.0902Z" fill="white"/>
<rect x="0.5" y="21.5" width="29.256" height="17.91" rx="1.5" stroke="#DDDDDD"/>
</g>
</g>
<defs>
<linearGradient id="paint0_linear_1_9374" x1="42.2066" y1="18.6054" x2="36.0625" y2="39.4179" gradientUnits="userSpaceOnUse">
<stop stop-color="#222E72"/>
<stop offset="0.591647" stop-color="#40CBFF"/>
<stop offset="1" stop-color="#3CB792"/>
</linearGradient>
</defs>
</svg>

<svg xmlns="http://www.w3.org/2000/svg" width="65" height="40" fill="none"><rect width="29.26" height="17.91" x="34.5" y=".5" fill="#fff" rx="1.5"/><g fill-rule="evenodd" clip-rule="evenodd"><path fill="#F79F1A" d="M58.43 12.54v-.2h-.06l-.06.14-.06-.14h-.05v.2h.04v-.15l.05.13h.04l.06-.13v.15h.04Zm-.34 0v-.16h.07v-.04H58v.04h.07v.16h.03Zm.35-2.98a5.61 5.61 0 1 1-11.23.02 5.61 5.61 0 0 1 11.23-.02Z"/><path fill="#EA001B" d="M51.52 9.56a5.61 5.61 0 1 1-11.23.02 5.61 5.61 0 0 1 11.23-.02Z"/><path fill="#FF5F01" d="M49.37 5.14a5.62 5.62 0 0 0 0 8.85 5.62 5.62 0 0 0 0-8.85Z"/></g><rect width="29.26" height="17.91" x="34.5" y=".5" stroke="#DDD" rx="1.5"/><rect width="29.26" height="17.91" x="34.5" y="21.5" fill="url(#a)" rx="1.5"/><path fill="#FEFEFE" fill-rule="evenodd" d="M44.01 30.05h5.3c-.04-1.14-.3-2.32-1.12-3.08-.96-.9-2.65-1.24-4.16-1.24-1.58 0-3.31.37-4.29 1.34-.83.83-1.01 2.18-1.01 3.38 0 1.27.35 2.74 1.26 3.6.96.9 2.53 1.13 4.04 1.13 1.46 0 3.05-.27 4-1.12.96-.86 1.3-2.3 1.3-3.6v-.01H44v-.4Zm5.66.4v4.52h7.38c1.08-.06 1.94-1.04 1.94-2.23 0-1.2-.86-2.23-1.94-2.3h-7.38Zm7.3-4.53c1.05 0 1.88.91 1.88 2.06 0 1.1-.76 1.98-1.74 2.07h-7.44v-4.14h7.3Z" clip-rule="evenodd"/><rect width="29.26" height="17.91" x="34.5" y="21.5" stroke="#DDD" rx="1.5"/><rect width="29.26" height="17.91" x=".5" y=".5" fill="#fff" rx="1.5"/><g fill="#1A1F71"><path d="M13.73 12.52h-1.68l1.05-6.1h1.68l-1.05 6.1ZM19.83 6.56a4.4 4.4 0 0 0-1.5-.26c-1.67 0-2.84.83-2.85 2.02-.01.88.84 1.37 1.48 1.66.65.3.87.5.87.76 0 .4-.53.6-1.01.6-.67 0-1.03-.1-1.58-.33l-.22-.1-.24 1.37c.4.17 1.12.32 1.88.33 1.76 0 2.91-.82 2.93-2.09 0-.7-.45-1.22-1.41-1.66-.6-.28-.95-.47-.95-.75 0-.26.3-.53.97-.53.54-.01.94.11 1.25.24l.15.06.23-1.32Z"/><path fill-rule="evenodd" d="M22.84 6.41h1.3l1.36 6.1h-1.56l-.2-.91h-2.16l-.35.92h-1.77l2.5-5.6c.18-.4.48-.5.88-.5Zm-.1 2.24-.67 1.7h1.4l-.4-1.76-.11-.53a30.97 30.97 0 0 1-.22.59ZM4.76 6.41h2.7c.37.02.67.13.76.52l.6 2.8.17.84 1.65-4.16h1.78l-2.64 6.1H8L6.5 7.2a7.13 7.13 0 0 0-1.77-.67l.03-.13Z" clip-rule="evenodd"/></g><rect width="29.26" height="17.91" x=".5" y=".5" stroke="#DDD" rx="1.5"/><rect width="29.26" height="17.91" x=".5" y="21.5" fill="#2557D6" rx="1.5"/><path fill="#fff" fill-rule="evenodd" d="M.79 29.62h1.38l.3-.74h.7l.31.74H6.2v-.57l.24.58h1.41l.24-.58v.57h6.74V28.4h.13c.09 0 .11.01.11.16v1.06h3.49v-.28c.28.15.72.28 1.3.28h1.46l.31-.74h.7l.3.74h2.83v-.7l.42.7h2.27v-4.68H25.9v.55l-.32-.55h-2.3v.55l-.28-.55h-3.1c-.53 0-.98.07-1.35.27v-.27H16.4v.27c-.24-.2-.56-.27-.92-.27H7.67l-.53 1.21-.54-1.21H4.14v.55l-.27-.55h-2.1l-.98 2.23v2.45Zm8.7-.67h-.83v-2.63l-1.18 2.63h-.7L5.6 26.32v2.63H3.96l-.3-.75H1.98l-.32.75H.8l1.44-3.36h1.2l1.37 3.18v-3.18h1.32l1.05 2.28.97-2.28h1.34v3.36ZM3.37 27.5l-.55-1.34-.55 1.34h1.1Zm9.4 1.45h-2.7v-3.36h2.7v.7h-1.9v.6h1.85v.7h-1.84v.66h1.88v.7Zm3.79-2.46c0 .54-.36.82-.57.9.18.07.33.18.4.28.11.17.13.32.13.62v.66h-.81v-.42c0-.2.02-.5-.13-.66-.12-.12-.3-.14-.59-.14h-.86v1.22h-.81v-3.36h1.85c.42 0 .72.01.98.16s.4.37.4.74Zm-1.02.5c-.11.07-.24.07-.4.07h-.98v-.74h1c.13 0 .28 0 .38.06.1.05.17.15.17.3 0 .14-.07.26-.17.31Zm2.31 1.96h-.82v-3.36h.82v3.36Zm9.55 0h-1.14l-1.53-2.52v2.52H23.1l-.31-.75H21.1l-.3.75h-.95c-.39 0-.89-.09-1.17-.37-.28-.29-.43-.67-.43-1.28 0-.5.1-.96.44-1.32.26-.27.67-.39 1.22-.39h.78v.72h-.76c-.3 0-.46.04-.62.2-.14.14-.23.4-.23.76s.07.62.22.79c.12.13.35.17.56.17h.36l1.14-2.64h1.2l1.37 3.18v-3.18h1.23l1.42 2.34v-2.34h.82v3.36Zm-4.9-1.45-.56-1.34-.55 1.34h1.11Zm6.96 6.81c-.2.29-.58.43-1.1.43h-1.55v-.72h1.55c.15 0 .26-.02.32-.08a.3.3 0 0 0 .1-.22.27.27 0 0 0-.1-.22c-.06-.05-.14-.08-.28-.08-.76-.02-1.7.03-1.7-1.04 0-.49.3-1 1.15-1h1.6v-.67h-1.49c-.45 0-.77.11-1 .28v-.28h-2.21c-.35 0-.77.1-.97.28v-.28h-3.94V31a2.1 2.1 0 0 0-1.08-.28h-2.6V31c-.25-.24-.8-.28-1.14-.28h-2.9l-.67.72-.63-.72H6.5v4.7h4.26l.69-.74.64.73h2.63v-1.1h.26c.35 0 .76 0 1.12-.16v1.26h2.17v-1.22h.1c.14 0 .15 0 .15.14v1.08h6.59c.42 0 .85-.1 1.1-.3v.3h2.08c.44 0 .86-.06 1.19-.22v-.87Zm-13.06-1.8c0 .93-.7 1.12-1.4 1.12H14v1.13h-1.57l-1-1.11-1.02 1.11H7.2V31.4h3.24l1 1.1 1.02-1.1h2.58c.64 0 1.36.18 1.36 1.1ZM10 34.06H8v-.67H9.8v-.69H8v-.61h2.03l.88.98-.92.98Zm3.2.38-1.25-1.37 1.24-1.32v2.69Zm1.82-1.5h-1.04v-.85h1.05c.3 0 .5.12.5.41 0 .3-.2.45-.5.45Zm5.46-1.54h2.7v.7h-1.9v.6h1.85v.7h-1.85v.66h1.9v.7h-2.7V31.4Zm-1.03 1.8c.18.07.32.18.4.28.1.17.12.32.12.62v.66h-.8v-.42c0-.2.01-.5-.13-.66-.12-.12-.3-.15-.6-.15h-.86v1.23h-.8V31.4h1.85c.41 0 .7.02.97.16.26.15.42.36.42.75 0 .53-.36.8-.57.89Zm-.46-.42c-.1.06-.24.06-.4.06h-.98v-.75h1c.14 0 .28 0 .38.06.1.06.17.16.17.3 0 .15-.07.26-.17.33Zm7.28.21c.16.16.24.37.24.71 0 .72-.45 1.06-1.27 1.06h-1.57v-.72h1.57c.15 0 .26-.02.33-.08a.3.3 0 0 0 0-.44c-.07-.05-.15-.08-.3-.08-.75-.02-1.7.03-1.7-1.04 0-.49.32-1 1.16-1h1.62v.72h-1.48c-.15 0-.24 0-.33.06-.08.05-.12.13-.12.24a.26.26 0 0 0 .18.25c.09.03.18.04.31.04h.44c.44.02.74.1.92.28Zm3.2-.9H28c-.15 0-.25 0-.33.06-.08.06-.12.14-.12.24a.25.25 0 0 0 .18.25c.09.03.18.04.31.04l.44.01c.44.01.73.09.91.27l.08.09v-.96Z" clip-rule="evenodd"/><rect width="29.26" height="17.91" x=".5" y="21.5" stroke="#DDD" rx="1.5"/><defs><linearGradient id="a" x1="42.21" x2="36.06" y1="18.61" y2="39.42" gradientUnits="userSpaceOnUse"><stop stop-color="#222E72"/><stop offset=".59" stop-color="#40CBFF"/><stop offset="1" stop-color="#3CB792"/></linearGradient></defs></svg>
